src/svgs/bulldozer.svg

<svg xmlns="http://www.w3.org/2000/svg" viewBox="0 0 24 24" width="512" height="512" aria-labelledby="bubulldozer-desc bubulldozer-title"><title id="bubulldozer-title">Bulldozer Icon</title><desc id="bubulldozer-desc">A picture depicting a bulldozer.</desc><path d="M22 13.564V5h1V3H13v1l1 1-1 5h-2V8a1 1 0 00-1-1H8l1 1v2a2 2 0 00-2 2v1.141a4 4 0 00-2.946 3.228L2 16.948V13a2 2 0 00-2-2v9h2v-.974l2.262-.638A3.99 3.99 0 008 21h12a3.982 3.982 0 002-7.436zM8 19a2 2 0 112-2 2 2 0 01-2 2zm8-14h4v5h-5zm4 14a2 2 0 112-2 2 2 0 01-2 2z"/></svg>

<svg xmlns="http://www.w3.org/2000/svg" viewBox="0 0 24 24"><path d="M22,13.564V5h1V3H13V4l1,1-1,5H11V8a1,1,0,0,0-1-1H8L9,8v2a2,2,0,0,0-2,2v1.141a4,4,0,0,0-2.946,3.228L2,16.948V13a2,2,0,0,0-2-2v9H2v-.974l2.262-.638A3.99,3.99,0,0,0,8,21H20a3.982,3.982,0,0,0,2-7.436ZM8,19a2,2,0,1,1,2-2A2,2,0,0,1,8,19ZM16,5h4v5H15Zm4,14a2,2,0,1,1,2-2A2,2,0,0,1,20,19Z"/></svg>
